packages/katcn/src/icons/svg/middleAlign.svg

<svg width="24" height="25" viewBox="0 0 24 25" fill="none" xmlns="http://www.w3.org/2000/svg">
<path d="M21 4.29602H3C2.4 4.29602 2 3.89602 2 3.29602C2 2.69602 2.4 2.29602 3 2.29602H21C21.6 2.29602 22 2.69602 22 3.29602C22 3.89602 21.6 4.29602 21 4.29602Z" fill="black"/>
<path d="M21 16.296H3C2.4 16.296 2 15.896 2 15.296C2 14.696 2.4 14.296 3 14.296H21C21.6 14.296 22 14.696 22 15.296C22 15.896 21.6 16.296 21 16.296Z" fill="black"/>
<path d="M17.8 10.296H6.10001C5.50001 10.296 5.10001 9.89602 5.10001 9.29602C5.10001 8.69602 5.50001 8.29602 6.10001 8.29602H17.8C18.4 8.29602 18.8 8.69602 18.8 9.29602C18.8 9.89602 18.4 10.296 17.8 10.296Z" fill="black"/>
<path d="M17.8 22.296H6.10001C5.50001 22.296 5.10001 21.896 5.10001 21.296C5.10001 20.696 5.50001 20.296 6.10001 20.296H17.8C18.4 20.296 18.8 20.696 18.8 21.296C18.8 21.896 18.4 22.296 17.8 22.296Z" fill="black"/>
</svg>

<svg xmlns="http://www.w3.org/2000/svg" fill="none" viewBox="0 0 24 25"><path fill="#000" d="M21 4.296H3c-.6 0-1-.4-1-1s.4-1 1-1h18c.6 0 1 .4 1 1s-.4 1-1 1m0 12H3c-.6 0-1-.4-1-1s.4-1 1-1h18c.6 0 1 .4 1 1s-.4 1-1 1m-3.2-6H6.1c-.6 0-1-.4-1-1s.4-1 1-1h11.7c.6 0 1 .4 1 1s-.4 1-1 1m0 12H6.1c-.6 0-1-.4-1-1s.4-1 1-1h11.7c.6 0 1 .4 1 1s-.4 1-1 1"/></svg>
